src/icons/run-tests-step.svg

<svg xmlns="http://www.w3.org/2000/svg" fill="none" viewBox="0 0 68 35"><defs/><path fill="#6B6D85" d="M67.8421 34.0822v-11.046l-18.584-3.338-18.875 9.499-17.25-1.874-12.875043 6.759M23.57 11.7764H3.51196v2.835H23.57v-2.835zM28.739 6.32227H3.51196v2.83499H28.739V6.32227zM18.0529.868164H3.88892V3.70316H18.0529V.868164zM48.7869.362305h-4.065V14.5343h4.065V.362305zM55.094 3.78711h-4.063V14.5361h4.063V3.78711zM42.203 3.78711h-4.067V14.5361h4.067V3.78711zM61.577.362305h-4.065V14.5343h4.065V.362305zM67.884 3.78711h-4.063V14.5361h4.063V3.78711z"/></svg>

<svg xmlns="http://www.w3.org/2000/svg" fill="none" viewBox="0 0 68 35"><path fill="#6B6D85" d="M67.842 34.082V23.036l-18.584-3.338-18.875 9.5-17.25-1.875-12.875 6.76M23.57 11.775H3.512v2.835H23.57v-2.835zm5.169-5.454H3.512v2.835h25.227V6.322zM18.053.868H3.889v2.835h14.164V.868zM48.787.362h-4.065v14.172h4.065V.362zm6.307 3.425h-4.063v10.75h4.063V3.786zm-12.891 0h-4.067v10.75h4.067V3.786zM61.577.362h-4.065v14.172h4.065V.362zm6.307 3.425h-4.063v10.75h4.063V3.786z"/></svg>
